X: 132014
Q: "Scotch Jig."
M: 6/8
L: 1/8
K: G
ud |\
g>fe edB | g>fg GBd | g>fe edB | ecA uA2uf |\
g>fe edB | g>fg a2b | g>fe ege | dBA A2 ||
vd2vB ud2uB | g>fg G2B/c/ | d2B d2B | ecA ABc |\
d2B d2B | gfg a2b | g>fe efg | dBA A2 |]


